static/images/past-sponsors/oxidOS.svg

<svg fill="none" height="59" viewBox="0 0 301 59" width="301" xmlns="http://www.w3.org/2000/svg" xmlns:xlink="http://www.w3.org/1999/xlink"><clipPath id="a"><path d="m0 0h301v59h-301z"/></clipPath><g clip-path="url(#a)"><g fill="#000"><path d="m61.3411 55.6032h-5.4417l-1.2768 3.4406h-1.3482l4.7694-12.411h.6024c.3909 0 .6741.2366.8516.71l2.7309 7.163h.0179v.0358l1.7193 4.5042h-1.3483l-1.2765-3.4408zm-5.0348-1.0992h4.6277l-2.3058-6.1696h-.0179l-2.3057 6.1696z"/><path d="m70.0839 58.6798c-.5792-.337-1.0292-.8159-1.3484-1.4362-.319-.6203-.4787-1.3323-.4787-2.1371v-8.4756h1.3124v8.5114c0 .8624.2313 1.5579.6923 2.0834.4607.5254 1.0703.7889 1.8269.7889h1.915c.7565 0 1.3644-.2635 1.8271-.7889.4607-.5255.692-1.221.692-2.0834v-8.5114h1.3124v8.4756c0 .8031-.1594 1.5168-.4786 2.1371-.3193.6203-.7693 1.0992-1.3483 1.4362-.5792.3371-1.2481.5057-2.0029.5057h-1.9148c-.7567 0-1.4254-.1686-2.0029-.5057z"/><path d="m86.6617 47.7659h-3.9356v-1.135h9.1836v1.135h-3.9357v11.2762h-1.3123z"/><path d="m97.9379 58.6352c-.6275-.3658-1.1151-.8858-1.463-1.5599-.3497-.6741-.5237-1.4541-.5237-2.3399v-3.7939c0-.8858.174-1.6675.5237-2.3398.3479-.6744.8355-1.1944 1.463-1.5599.6258-.3658 1.3537-.5489 2.1801-.5489h1.879c.827 0 1.555.1831 2.181.5489.625.3655 1.113.8855 1.463 1.5599.347.6741.523 1.454.523 2.3398v3.7939c0 .8858-.174 1.6638-.523 2.3309-.348.6687-.839 1.1886-1.472 1.5599-.633.3728-1.356.5576-2.172.5576h-1.897c-.8156 0-1.5363-.1828-2.1621-.5503zm4.0251-.6203c.863 0 1.56-.3013 2.092-.9037.533-.6024.798-1.3951.798-2.3758v-3.7939c0-.9809-.265-1.7733-.798-2.3757-.532-.6026-1.229-.9037-2.092-.9037h-1.809c-.8624 0-1.5599.3011-2.0923.9037-.5327.6024-.7979 1.3948-.7979 2.3757v3.7939c0 .9807.2635 1.7734.7889 2.3758.5252.6024 1.221.9037 2.0833.9037z"/><path d="m111.661 46.6309h1.259l4.432 8.2442 4.309-8.2442h1.258v12.4112h-1.294v-9.9656l-3.582 6.8079c-.131.2369-.243.3982-.337.4879-.096.0896-.201.1327-.32.1327h-.39l-4.044-7.4285v9.9656h-1.294v-12.4112z"/><path d="m130.404 58.6352c-.628-.3658-1.116-.8858-1.464-1.5599-.349-.6741-.523-1.4541-.523-2.3399v-3.7939c0-.8858.174-1.6675.523-2.3398.348-.6744.836-1.1944 1.464-1.5599.625-.3658 1.353-.5489 2.18-.5489h1.879c.827 0 1.555.1831 2.18.5489.626.3655 1.114.8855 1.463 1.5599.348.6741.524 1.454.524 2.3398v3.7939c0 .8858-.174 1.6638-.524 2.3309-.348.6687-.839 1.1886-1.472 1.5599-.633.3728-1.355.5576-2.171.5576h-1.897c-.816 0-1.537-.1828-2.162-.5503zm4.025-.6203c.862 0 1.56-.3013 2.092-.9037.533-.6024.798-1.3951.798-2.3758v-3.7939c0-.9809-.265-1.7733-.798-2.3757-.532-.6026-1.23-.9037-2.092-.9037h-1.809c-.863 0-1.56.3011-2.093.9037-.532.6024-.798 1.3948-.798 2.3757v3.7939c0 .9807.264 1.7734.789 2.3758.526.6024 1.222.9037 2.084.9037z"/><path d="m146.609 47.7659h-3.936v-1.135h9.184v1.135h-3.936v11.2762h-1.312z"/><path d="m156.999 46.6309h1.313v12.4112h-1.313z"/><path d="m167.931 58.8486c-.149-.1293-.274-.3372-.382-.6206l-4.237-11.5952h1.348l3.866 10.8332h.018l3.884-10.8332h1.348l-4.61 12.411h-.674c-.224 0-.411-.0645-.558-.1952z"/><path d="m178.897 58.7318c-.201-.2062-.301-.493-.301-.8606v-11.242h8.334v1.135h-7.022v4.3625h6.489v1.1348h-6.489v4.6456h7.022v1.135h-7.181c-.366 0-.651-.1041-.852-.3103z"/><path d="m175.915.185547h11.043v4.971963h-4.687v28.19829h4.687v4.972h-11.043z"/></g><path d="m188.69 19.4603c0-6.6018 5.094-11.28867 12.064-11.28867 6.969 0 12.022 4.68687 12.022 11.28867 0 6.6017-5.053 11.2886-12.022 11.2886-6.97 0-12.064-4.6869-12.064-11.2886zm17.645 0c0-3.7904-2.404-6.0711-5.583-6.0711s-5.623 2.2824-5.623 6.0711 2.446 6.071 5.623 6.071 5.583-2.2823 5.583-6.071z" fill="#5a81fa"/><path d="m214.892 28.3857 2.119-4.5632c1.956 1.2641 4.931 2.1195 7.62 2.1195 2.933 0 4.034-.7747 4.034-1.9975 0-3.5859-13.244.0807-13.244-8.6798 0-4.1562 3.749-7.09136 10.146-7.09136 3.016 0 6.358.69209 8.436 1.91496l-2.119 4.5237c-2.161-1.2229-4.32-1.6299-6.317-1.6299-2.853 0-4.075.8965-4.075 2.0368 0 3.7491 13.244.122 13.244 8.7605 0 4.0756-3.79 6.9678-10.351 6.9678-3.708 0-7.457-1.0185-9.493-2.3633z" fill="#5a81fa"/><path d="m236.468 38.3278v-4.972h4.645v-28.19829h-4.645v-4.971963h11.002v38.142253z" fill="#000"/><path d="m69.6516 9.66333c-9.528 0-16.3772 6.02617-16.3772 14.57527 0 8.5488 6.8492 14.6271 16.3772 14.6271 9.5278 0 16.377-6.0763 16.377-14.6271s-6.7972-14.57527-16.377-14.57527zm0 20.67867c-3.3566 0-6.0782-2.7219-6.0782-6.0783 0-3.3566 2.7216-6.0782 6.0782-6.0782 3.3564 0 6.0783 2.7216 6.0783 6.0782 0 3.3564-2.7219 6.0783-6.0783 6.0783z" fill="#000"/><path d="m122.142 18.1944v20.155h11.638v-20.1712z" fill="#000"/><path d="m133.78 14.5583v-4.3803h-11.638v7.4893z" fill="#000"/><path d="m157.714.190674.025 10.978526h-.007v10.0874c.509.8945.803 1.9292.803 3.0336 0 3.387-2.746 6.1338-6.133 6.1338s-6.134-2.7468-6.134-6.1338 2.747-6.1337 6.134-6.1337c1.563 0 2.989.5844 4.072 1.5472l-2.59-9.71075c-1.002-.25281-2.108-.43749-3.394-.43749-7.432 0-13.721 5.56184-13.721 14.70784s6.287 14.7598 13.721 14.7598c3.534 0 5.79-.6024 7.796-1.6834v1.0076h11.174v-38.156626z" fill="#000"/><path d="m99.5729 12.9033-2.0871-2.7253h-12.6171l10.272 13.4114z" fill="#000"/><path d="m108.793 24.9395-4.435 10.6844 2.087 2.7254h12.618z" fill="#000"/><path d="m119.063 10.178h-12.617l-21.5773 28.1715h12.6171z" fill="#5a81fa"/></g></svg>

<svg width="301" height="59" viewBox="0 0 301 59" fill="none" xmlns="http://www.w3.org/2000/svg">
<g clip-path="url(#clip0_505_409)">
<path d="M61.3411 55.6032H55.8994L54.6226 59.0438H53.2744L58.0438 46.6328H58.6462C59.0371 46.6328 59.3203 46.8694 59.4978 47.3428L62.2287 54.5058H62.2466V54.5416L63.9659 59.0458H62.6176L61.3411 55.605V55.6032ZM56.3063 54.504H60.934L58.6282 48.3344H58.6103L56.3046 54.504H56.3063Z" fill="black"/>
<path d="M70.0839 58.6798C69.5047 58.3428 69.0547 57.8639 68.7355 57.2436C68.4165 56.6233 68.2568 55.9113 68.2568 55.1065V46.6309H69.5692V55.1423C69.5692 56.0047 69.8005 56.7002 70.2615 57.2257C70.7222 57.7511 71.3318 58.0146 72.0884 58.0146H74.0034C74.7599 58.0146 75.3678 57.7511 75.8305 57.2257C76.2912 56.7002 76.5225 56.0047 76.5225 55.1423V46.6309H77.8349V55.1065C77.8349 55.9096 77.6755 56.6233 77.3563 57.2436C77.037 57.8639 76.587 58.3428 76.008 58.6798C75.4288 59.0169 74.7599 59.1855 74.0051 59.1855H72.0903C71.3336 59.1855 70.6649 59.0169 70.0874 58.6798H70.0839Z" fill="black"/>
<path d="M86.6617 47.7659H82.7261V46.6309H91.9097V47.7659H87.974V59.0421H86.6617V47.7659Z" fill="black"/>
<path d="M97.9379 58.6352C97.3104 58.2694 96.8228 57.7494 96.4749 57.0753C96.1252 56.4012 95.9512 55.6212 95.9512 54.7354V50.9415C95.9512 50.0557 96.1252 49.274 96.4749 48.6017C96.8228 47.9273 97.3104 47.4073 97.9379 47.0418C98.5637 46.676 99.2916 46.4929 100.118 46.4929H101.997C102.824 46.4929 103.552 46.676 104.178 47.0418C104.803 47.4073 105.291 47.9273 105.641 48.6017C105.988 49.2758 106.164 50.0557 106.164 50.9415V54.7354C106.164 55.6212 105.99 56.3992 105.641 57.0663C105.293 57.735 104.802 58.2549 104.169 58.6262C103.536 58.999 102.813 59.1838 101.997 59.1838H100.1C99.2844 59.1838 98.5637 59.001 97.9379 58.6335V58.6352ZM101.963 58.0149C102.826 58.0149 103.523 57.7136 104.055 57.1112C104.588 56.5088 104.853 55.7161 104.853 54.7354V50.9415C104.853 49.9606 104.588 49.1682 104.055 48.5658C103.523 47.9632 102.826 47.6621 101.963 47.6621H100.154C99.2916 47.6621 98.5941 47.9632 98.0617 48.5658C97.529 49.1682 97.2638 49.9606 97.2638 50.9415V54.7354C97.2638 55.7161 97.5273 56.5088 98.0527 57.1112C98.5779 57.7136 99.2737 58.0149 100.136 58.0149H101.963Z" fill="black"/>
<path d="M111.661 46.6309H112.92L117.352 54.8751L121.661 46.6309H122.919V59.0421H121.625V49.0765L118.043 55.8844C117.912 56.1213 117.8 56.2826 117.706 56.3723C117.61 56.4619 117.505 56.505 117.386 56.505H116.996L112.952 49.0765V59.0421H111.658V46.6309H111.661Z" fill="black"/>
<path d="M130.404 58.6352C129.776 58.2694 129.288 57.7494 128.94 57.0753C128.591 56.4012 128.417 55.6212 128.417 54.7354V50.9415C128.417 50.0557 128.591 49.274 128.94 48.6017C129.288 47.9273 129.776 47.4073 130.404 47.0418C131.029 46.676 131.757 46.4929 132.584 46.4929H134.463C135.29 46.4929 136.018 46.676 136.643 47.0418C137.269 47.4073 137.757 47.9273 138.106 48.6017C138.454 49.2758 138.63 50.0557 138.63 50.9415V54.7354C138.63 55.6212 138.456 56.3992 138.106 57.0663C137.758 57.735 137.267 58.2549 136.634 58.6262C136.001 58.999 135.279 59.1838 134.463 59.1838H132.566C131.75 59.1838 131.029 59.001 130.404 58.6335V58.6352ZM134.429 58.0149C135.291 58.0149 135.989 57.7136 136.521 57.1112C137.054 56.5088 137.319 55.7161 137.319 54.7354V50.9415C137.319 49.9606 137.054 49.1682 136.521 48.5658C135.989 47.9632 135.291 47.6621 134.429 47.6621H132.62C131.757 47.6621 131.06 47.9632 130.527 48.5658C129.995 49.1682 129.729 49.9606 129.729 50.9415V54.7354C129.729 55.7161 129.993 56.5088 130.518 57.1112C131.044 57.7136 131.74 58.0149 132.602 58.0149H134.429Z" fill="black"/>
<path d="M146.609 47.7659H142.673V46.6309H151.857V47.7659H147.921V59.0421H146.609V47.7659Z" fill="black"/>
<path d="M156.999 46.6309H158.312V59.0421H156.999V46.6309Z" fill="black"/>
<path d="M167.931 58.8486C167.782 58.7193 167.657 58.5114 167.549 58.228L163.312 46.6328H164.66L168.526 57.466H168.544L172.428 46.6328H173.776L169.166 59.0438H168.492C168.268 59.0438 168.081 58.9793 167.934 58.8486H167.931Z" fill="black"/>
<path d="M178.897 58.7318C178.696 58.5256 178.596 58.2388 178.596 57.8712V46.6292H186.93V47.7642H179.908V52.1267H186.397V53.2615H179.908V57.9071H186.93V59.0421H179.749C179.383 59.0421 179.098 58.938 178.897 58.7318Z" fill="black"/>
<path d="M175.915 0.185547H186.958V5.15751H182.271V33.3558H186.958V38.3278H175.915V0.185547Z" fill="black"/>
<path d="M188.69 19.4603C188.69 12.8585 193.784 8.17163 200.754 8.17163C207.723 8.17163 212.776 12.8585 212.776 19.4603C212.776 26.062 207.723 30.7489 200.754 30.7489C193.784 30.7489 188.69 26.062 188.69 19.4603ZM206.335 19.4603C206.335 15.6699 203.931 13.3892 200.752 13.3892C197.573 13.3892 195.129 15.6716 195.129 19.4603C195.129 23.249 197.575 25.5313 200.752 25.5313C203.929 25.5313 206.335 23.249 206.335 19.4603Z" fill="#5A81FA"/>
<path d="M214.892 28.3857L217.011 23.8225C218.967 25.0866 221.942 25.942 224.631 25.942C227.564 25.942 228.665 25.1673 228.665 23.9445C228.665 20.3586 215.421 24.0252 215.421 15.2647C215.421 11.1085 219.17 8.17334 225.567 8.17334C228.583 8.17334 231.925 8.86543 234.003 10.0883L231.884 14.612C229.723 13.3891 227.564 12.9821 225.567 12.9821C222.714 12.9821 221.492 13.8786 221.492 15.0189C221.492 18.768 234.736 15.1409 234.736 23.7794C234.736 27.855 230.946 30.7472 224.385 30.7472C220.677 30.7472 216.928 29.7287 214.892 28.3839V28.3857Z" fill="#5A81FA"/>
<path d="M236.468 38.3278V33.3558H241.113V5.15751H236.468V0.185547H247.47V38.3278H236.468Z" fill="black"/>
<path d="M69.6516 9.66333C60.1236 9.66333 53.2744 15.6895 53.2744 24.2386C53.2744 32.7874 60.1236 38.8657 69.6516 38.8657C79.1794 38.8657 86.0286 32.7894 86.0286 24.2386C86.0286 15.6878 79.2314 9.66333 69.6516 9.66333ZM69.6516 30.342C66.295 30.342 63.5734 27.6201 63.5734 24.2637C63.5734 20.9071 66.295 18.1855 69.6516 18.1855C73.008 18.1855 75.7299 20.9071 75.7299 24.2637C75.7299 27.6201 73.008 30.342 69.6516 30.342Z" fill="black"/>
<path d="M122.142 18.1944V38.3494H133.78V18.1782L122.142 18.1944Z" fill="black"/>
<path d="M133.78 14.5583V10.178H122.142V17.6673L133.78 14.5583Z" fill="black"/>
<path d="M157.714 0.190674L157.739 11.1692H157.732V21.2566C158.241 22.1511 158.535 23.1858 158.535 24.2902C158.535 27.6772 155.789 30.424 152.402 30.424C149.015 30.424 146.268 27.6772 146.268 24.2902C146.268 20.9032 149.015 18.1565 152.402 18.1565C153.965 18.1565 155.391 18.7409 156.474 19.7037L153.884 9.99295C152.882 9.74014 151.776 9.55546 150.49 9.55546C143.058 9.55546 136.769 15.1173 136.769 24.2633C136.769 33.4093 143.056 39.0231 150.49 39.0231C154.024 39.0231 156.28 38.4207 158.286 37.3397V38.3473H169.46V0.190674H157.714Z" fill="black"/>
<path d="M99.5729 12.9033L97.4858 10.178H84.8687L95.1407 23.5894L99.5729 12.9033Z" fill="black"/>
<path d="M108.793 24.9395L104.358 35.6239L106.445 38.3493H119.063L108.793 24.9395Z" fill="black"/>
<path d="M119.063 10.178H106.446L84.8687 38.3495H97.4858L119.063 10.178Z" fill="#5A81FA"/>
</g>
<defs>
<clipPath id="clip0_505_409">
<rect width="301" height="59" fill="white"/>
</clipPath>
</defs>
</svg>
